www/assets/icons/electric_meter.svg

<svg xmlns="http://www.w3.org/2000/svg" width="24" height="24" viewBox="0 0 24 24" fill='currentColor'><path d="M12 2c-4.96 0-9 4.04-9 9 0 3.91 2.51 7.24 6 8.47V22h2v-2.06a8.3 8.3 0 0 0 2 0V22h2v-2.53c3.49-1.24 6-4.57 6-8.47 0-4.96-4.04-9-9-9m2.25 12-3 3-1.5-1.5L11 14.25 9.75 13l3-3 1.5 1.5L13 12.75zM16 9H8V7h8z"/></svg>

<svg width="24" height="24" viewBox="0 0 24 24" xmlns="http://www.w3.org/2000/svg" fill='currentColor'><path d="M12 2C7.04 2 3 6.04 3 11C3 14.91 5.51 18.24 9 19.47V22H11V19.94C11.33 19.98 11.66 20 12 20C12.34 20 12.67 19.98 13 19.94V22H15V19.47C18.49 18.23 21 14.9 21 11C21 6.04 16.96 2 12 2ZM14.25 14L11.25 17L9.75 15.5L11 14.25L9.75 13L12.75 10L14.25 11.5L13 12.75L14.25 14ZM16 9H8V7H16V9Z"/></svg>
